!!!!SEGMENT: pl-cz--iii-679--010_volckmer-augustinus--missa-in-d-sanctus.krn
!!!cenid: 17xx:1182
!!!COM: Volckmer, Augustinus
!!!COM-rismid:
!!!CDT:
!!!CNT:
!!!OPR: Missa in D
!!!OTL: Sanctus
!!!OMV: 010
!!!PDT:
!!!AGN: Sacred; Mass
!!!SMS-siglum: PL-CZ
!!!SMS-shelfmark: III-679
!!!SMS-shelfwork: 001-010 M
!!!SMS-variant:
!!!SMS-altvar:
!!!NIFC-rismid: 300001394
!!!URL-scan: http://repozytorium.nifc.pl/skany/pl-cz-nut--iii-679
!!!ONB-nifc: UWAGA: części Mszy: Sinfonia, Kyrie, Gloria, Domine Deus, Cum Sancto Spiritu, In gloria Dei Patris, Credo, Et incarnatus, Et resurrexit, Sanctus, Pleni Sunt, Benedictus, Agnus Dei, Dona nobis
!!!key: D
**kern	**fba	**dynam	**kern	**dynam	**kern	**dynam	**kern	**dynam	**kern	**dynam	**kern	**text	**dynam	**kern	**text	**dynam	**kern	**text	**dynam	**kern	**text	**dynam	**kern	**kern	**dynam	**kern	**dynam	**kern	**dynam	**kern	**dynam	**kern	**dynam	**kern	**dynam	**kern	**dynam	**kern	**dynam	**kern	**dynam
*	*	*	*group4	*	*group4	*	*group4	*	*group4	*	*group3	*	*	*group3	*	*	*group3	*	*	*group3	*	*	*	*group2	*	*group2	*	*group2	*	*group2	*	*group1	*	*group1	*	*group1	*	*group1	*	*group1	*
*part19	*	*part19	*part18	*part18	*part17	*part17	*part16	*part16	*part15	*part15	*part14	*part14	*part14	*part13	*part13	*part13	*part12	*part12	*part12	*part11	*part11	*part11	*part10	*part9	*part9	*part8	*part8	*part7	*part7	*part6	*part6	*part5	*part5	*part4	*part4	*part3	*part3	*part2	*part2	*part1	*part1
*staff19	*	*	*staff18	*	*staff17	*	*staff16	*	*staff15	*	*staff14	*staff14	*	*staff13	*staff13	*	*staff12	*staff12	*	*staff11	*staff11	*	*staff10	*staff9	*	*staff8	*	*staff7	*	*staff6	*	*staff5	*	*staff4	*	*staff3	*	*staff2	*	*staff1	*
*I"Organo. v Violone	*	*	*I"Viola Secundo.	*	*I"Viola Primo.	*	*I"Violino Secundo.	*	*I"Violino. Primo.	*	*I"Baſso.	*	*	*I"Tenore.	*	*	*I"Alto.	*	*	*I"Canto.	*	*	*I"Timpano	*I"Clarino Secundo	*	*I"Clarino Primo	*	*I"Corno Secundo.	*	*I"Corno Primo:	*	*I"Fagotho Secundo.	*	*I"Fagotho Primo.	*	*I"Hautbois Secundo.	*	*I"Hautbois Primo.	*	*I"Flauto.	*
*I'org/vlne	*	*	*I'vla 2	*	*I'vla 1	*	*I'vl 2	*	*I'vl 1	*	*I'B	*	*	*I'T	*	*	*I'A	*	*	*I'S	*	*	*I'timp	*I'clno 2	*	*I'clno 1	*	*I'cor 2	*	*I'cor 1	*	*I'fag 2	*	*I'fag 1	*	*I'ob 2	*	*I'ob 1	*	*I'fl	*
*Iorgan/viole	*	*	*Iviola	*	*Iviola	*	*Ivioln	*	*Ivioln	*	*Ibass	*	*	*Itenor	*	*	*Ialto	*	*	*Isoprn	*	*	*Itimpa	*Iclrno	*	*Iclrno	*	*Icor	*	*Icor	*	*Ifagot	*	*Ifagot	*	*Ioboe	*	*Ioboe	*	*Iflt	*
*ICklav/str	*	*	*ICstr	*	*ICstr	*	*ICstr	*	*ICstr	*	*ICvox	*	*	*ICvox	*	*	*ICvox	*	*	*ICvox	*	*	*ICidio	*ICbras	*	*ICbras	*	*ICbras	*	*ICbras	*	*ICww	*	*ICww	*	*ICww	*	*ICww	*	*ICww	*
*IGcont	*	*	*	*	*	*	*	*	*	*	*IGcoro	*	*	*IGcoro	*	*	*IGcoro	*	*	*IGcoro	*	*	*	*	*	*	*	*	*	*	*	*	*	*	*	*	*	*	*	*	*
*clefF4	*	*	*clefC3	*	*clefC3	*	*clefG2	*	*clefG2	*	*clefF4	*	*	*clefC4	*	*	*clefC3	*	*	*clefC1	*	*	*clefF4	*clefG2	*	*clefG2	*	*clefG2	*	*clefG2	*	*clefF4	*	*clefF4	*	*clefG2	*	*clefG2	*	*clefG2	*
*	*	*	*	*	*	*	*	*	*	*	*	*	*	*	*	*	*	*	*	*	*	*	*	*ITrd-1c-2	*	*ITrd-1c-2	*	*ITrd6c10	*	*ITrd6c10	*	*	*	*	*	*	*	*	*	*	*
*k[f#c#]	*	*	*k[f#c#]	*	*k[f#c#]	*	*k[f#c#]	*	*k[f#c#]	*	*k[f#c#]	*	*	*k[c#f#]	*	*	*k[f#c#]	*	*	*k[c#f#]	*	*	*k[]	*k[f#c#]	*	*k[f#c#]	*	*k[f#c#]	*	*k[f#c#]	*	*k[f#c#]	*	*k[f#c#]	*	*k[f#c#]	*	*k[f#c#]	*	*k[f#c#]	*
*D:	*	*	*D:	*	*D:	*	*D:	*	*D:	*	*D:	*	*	*D:	*	*	*D:	*	*	*D:	*	*	*D:	*D:	*	*D:	*	*D:	*	*D:	*	*D:	*	*D:	*	*D:	*	*D:	*	*D:	*
*M3/4	*	*	*M3/4	*	*M3/4	*	*M3/4	*	*M3/4	*	*M3/4	*	*	*M3/4	*	*	*M3/4	*	*	*M3/4	*	*	*M3/4	*M3/4	*	*M3/4	*	*M3/4	*	*M3/4	*	*M3/4	*	*M3/4	*	*M3/4	*	*M3/4	*	*M3/4	*
=1	=1	=1	=1	=1	=1	=1	=1	=1	=1	=1	=1	=1	=1	=1	=1	=1	=1	=1	=1	=1	=1	=1	=1	=1	=1	=1	=1	=1	=1	=1	=1	=1	=1	=1	=1	=1	=1	=1	=1	=1	=1
*	*	*	*all\right	*	*all\right	*	*all\right	*	*	*	*	*	*	*all\right	*	*	*all\right	*	*	*	*	*	*	*	*	*	*	*	*	*	*	*	*	*	*	*all\right	*	*all\right	*	*	*
*	*	*	*	*	*	*	*	*	*	*below	*	*	*	*	*	*	*2\right	*	*	*	*	*	*	*	*	*	*	*	*	*	*	*	*	*	*	*	*	*	*	*	*
!	!	!	!	!	!LO:TX:a:i:t=Majest	!	!	!	!	!	!	!	!	!	!	!	!	!	!	!	!	!	!	!	!	!	!	!	!	!	!	!LO:TX:a:i:t=Adagio	!	!	!	!	!	!LO:TX:b:t=P:problem:niezidentyfikowany symbol pod pieciolinią	!	!	!
!LO:TX:a:t=Tutti	!	!	!	!	!	!	!	!	!	!	!	!	!	!	!	!	!	!	!	!LO:TX:t=P:problem:kolejność znaków cc# f#	!	!	!	!	!	!	!	!LO:TX:a:rj:t=in D	!	!LO:TX:a:i:rj:t=in D	!	!	!	!	!	!LO:TX:a:t=1	!	!LO:TX:a:t=1	!	!	!
!LO:TX:a:i:rj:t=Majest&colon;	!	!	!LO:TX:a:t=Adagio maje	!	!LO:TX:a:i:rj:t=Adagio	!LO:DY:t=f	!LO:TX:a:i:rj:t=Adagio. Majestoso.	!LO:DY:rj:t=for.	!LO:TX:a:i:rj:t=Adagio Maiestoso	!	!LO:TX:a:t=Adag. Majest&colon;	!	!LO:DY:b:rj:t=forte	!LO:TX:a:i:t=Adagio Majestoso	!	!LO:DY:a:t=fort	!LO:TX:a:i:t=Adagio Majestuoso.	!	!LO:DY:a:rj:t=for&colon;	!LO:TX:a:i:t=Adagio Majestuoso.	!	!LO:DY:a:rj:t=for&colon;	!LO:TX:a:rj:t=Adagio	!LO:TX:a:i:rj:t=Adagio Maiestoso	!LO:DY:t=f	!LO:TX:a:rj:t=Adagio	!	!LO:TX:a:i:t=Adagio Maiestoso	!	!LO:TX:a:i:t=Adagio Majestosſo	!	!LO:TX:a:i:rj:t=Majestoso	!LO:DY:a:t=Forte	!LO:TX:b:i:rj:t=Majestoso	!LO:DY:a:t=forte	!LO:TX:a:rj:t=Adagio Maiestoso	!	!LO:TX:a:t=Adagio. Maiestoso.	!	!LO:TX:a:t=adagio	!
4D\	3	.	4d\	f	4f#\	f	4dd\	f	4ff# 4a 4d/	f	(>4D/	San-	f	(4d\	San-	f	2.a\	San-	f	(4ff#\	San-	f	4D\	4dd\	f	4ff#\	f	4d\	f	4f#\	f	4D\	f	4D\	f	2.r	.	2.r	.	4fff#\	f
4GG/	.	.	4e\	.	4g\	.	4ee\	.	4gg 4a\	.	4G/)	.	.	4e\	.	.	.	.	.	4gg\)	.	.	4r	4ee\	.	4gg\	.	4e\	.	4g\	.	4GG/	.	4G\	.	.	.	.	.	4ggg\	.
4AA/	2	.	4c#\	.	4e\	.	4cc#\	.	4ee 4a\	.	4A/	.	.	4c#\)	.	.	.	.	.	4ee\|	.	.	4AA/	4a/	.	4ee\	.	4A/	.	4e\	.	4AA/	.	4A\	.	.	.	.	.	4eee\	.
=2	=2	=2	=2	=2	=2	=2	=2	=2	=2	=2	=2	=2	=2	=2	=2	=2	=2	=2	=2	=2	=2	=2	=2	=2	=2	=2	=2	=2	=2	=2	=2	=2	=2	=2	=2	=2	=2	=2	=2	=2	=2
*	*	*	*	*	*	*	*^	*	*^	*	*	*	*	*	*	*	*	*	*	*	*	*	*	*	*	*	*	*	*	*	*	*	*	*	*	*	*	*	*	*	*
!	!	!	!	!	!	!	!	!	!	!	!	!	!	!	!	!	!	!	!	!	!	!	!	!	!	!	!	!	!	!	!	!	!	!	!	!	!	!LO:TX:a:t=Solo	!	!LO:TX:b:t=Solo	!	!	!
4D\	#	.	4d\	.	4f#\	.	4dd\	4ryy	.	4ff# 4a\	4reyy	.	4D/	-ctus	.	4d\	-ctus	.	4a\	-ctus	.	4ff#\	-ctus	.	4D\	4dd\	.	4ff#\	.	4d\	.	4f#\	.	4D\	.	4D\	.	4r	.	4r	.	4fff#\	.
*	*	*	*	*	*	*	*cue	*	*	*cue	*	*	*	*	*	*	*	*	*	*	*	*	*	*	*	*	*	*	*	*	*	*	*	*	*	*	*	*	*	*	*	*	*
!	!	!	!	!	!LO:TX:b:t=Solo	!	!LO:TX:a:t=oboi	!	!	!LO:TX:a:t=oboi	!	!	!	!	!	!	!	!	!	!	!	!	!	!	!	!	!	!	!	!	!	!	!	!	!	!	!	!	!	!	!	!	!
4r	.	.	4r	.	(8A/L	.	4ree	4rg	.	8a/L	4r	.	4r	.	.	4r	.	.	4r	.	.	4r	.	.	4r	4r	.	4r	.	4r	.	4r	.	4r	.	4r	.	4r	.	(8a\L	.	4r	.
.	.	.	.	.	8d/	.	.	.	.	8dd/	.	.	.	.	.	.	.	.	.	.	.	.	.	.	.	.	.	.	.	.	.	.	.	.	.	.	.	.	.	8dd\)	.	.	.
!	!	!	!	!	!	!	!LO:N:vis=8	!	!	!	!	!	!	!	!	!	!	!	!	!	!	!	!	!	!	!	!	!	!	!	!	!	!	!	!	!	!	!LO:TX:b:t=P:problem:niezidentyfikowany symbol pod pieciolinią	!	!	!	!	!
4r	.	.	8r	.	8d/	.	8ree	4rg	.	8dd/	4r	.	4r	.	.	4r	.	.	4r	.	.	4r	.	.	4r	4r	.	4r	.	4r	.	4r	.	4r	.	4r	.	8r	.	(8dd\	.	4r	.
.	.	.	8d\	.	8f#/J)	.	8dd/	.	.	8ff#/J	.	.	.	.	.	.	.	.	.	.	.	.	.	.	.	.	.	.	.	.	.	.	.	.	.	.	.	8dd\	.	8ff#\J)	.	.	.
=3	=3	=3	=3	=3	=3	=3	=3	=3	=3	=3	=3	=3	=3	=3	=3	=3	=3	=3	=3	=3	=3	=3	=3	=3	=3	=3	=3	=3	=3	=3	=3	=3	=3	=3	=3	=3	=3	=3	=3	=3	=3	=3	=3
!LO:TX:a:t=2.	!	!	!	!	!	!	!	!	!	!	!	!	!LO:TX:a:t=2.	!	!	!	!	!	!LO:TX:a:t=2.	!	!	!LO:TX:a:t=2.	!	!	!LO:TX:a:t=2	!LO:TX:a:t=2	!	!LO:TX:a:t=2	!	!	!	!	!LO:DY:t=piano	!	!LO:DY:a:t=piano	!LO:TX:a:i:t=Solo	!	!LO:TX:a:t=dolce	!	!	!	!LO:TX:a:t=2	!
1.r	.	.	(8e\L	.	(8g\L	.	(<8ee/L	2.r	.	(<8gg/L	2.r	.	1.r	.	.	1.r	.	.	1.r	.	.	1.r	.	.	1.r	1.r	.	1.r	.	8A/L	p	8e\L	p	4AA/	p	4AA/	.	(8ee\L	.	(8gg\L	.	1.r	.
.	.	.	8c#\)	.	8e\)	.	8cc#/)	.	.	8ee/)	.	.	.	.	.	.	.	.	.	.	.	.	.	.	.	.	.	.	.	16A/L	.	16e\L	.	.	.	.	.	8cc#\)	.	8ee\)	.	.	.
.	.	.	.	.	.	.	.	.	.	.	.	.	.	.	.	.	.	.	.	.	.	.	.	.	.	.	.	.	.	16A/JJ	.	16e\JJ	.	.	.	.	.	.	.	.	.	.	.
.	.	.	(8e\	.	(8g\	.	(<8ee/	.	.	(<8gg/	.	.	.	.	.	.	.	.	.	.	.	.	.	.	.	.	.	.	.	8A/L	.	8e\L	.	4C#/	.	4C#/	.	(8ee\	.	(8gg\	.	.	.
.	.	.	8c#\J)	.	8e\J)	.	8cc#/J)	.	.	8ee/J)	.	.	.	.	.	.	.	.	.	.	.	.	.	.	.	.	.	.	.	8A/J	.	8e\J	.	.	.	.	.	8cc#\J)	.	8ee\J)	.	.	.
.	.	.	4d\	.	4f#\	.	4dd/	.	.	4ff#/	.	.	.	.	.	.	.	.	.	.	.	.	.	.	.	.	.	.	.	4d\	.	4f#\	.	4D/	.	4D/	.	4dd\	.	4ff#\	.	.	.
*	*	*	*	*	*	*	*Xcue	*	*	*	*	*	*	*	*	*	*	*	*	*	*	*	*	*	*	*	*	*	*	*	*	*	*	*	*	*	*	*	*	*	*	*	*
=4	=4	=4	=4	=4	=4	=4	=4	=4	=4	=4	=4	=4	=4	=4	=4	=4	=4	=4	=4	=4	=4	=4	=4	=4	=4	=4	=4	=4	=4	=4	=4	=4	=4	=4	=4	=4	=4	=4	=4	=4	=4	=4	=4
*	*	*	*	*	*	*	*	*cue	*	*	*	*	*	*	*	*	*	*	*	*	*	*	*	*	*	*	*	*	*	*	*	*	*	*	*	*	*	*	*	*	*	*	*
!	!	!	!	!	!	!	!	!	!	!	!	!	!	!	!	!	!	!	!	!	!	!	!	!	!	!	!	!	!	!	!	!	!	!	!LO:DY:a:i:t=P&colon;	!	!	!	!	!	!	!	!
.	.	.	8G/L|	.	(8e\L	.	2.r	8g\L	.	8ee/L	2.r	.	.	.	.	.	.	.	.	.	.	.	.	.	.	.	.	.	.	4r	.	4r	.	4G\	p	4G\	.	8g/L	.	(8ee\L	.	.	.
.	.	.	(16A/L	.	16f#\L	.	.	16a\L	.	(<16ff#/L	.	.	.	.	.	.	.	.	.	.	.	.	.	.	.	.	.	.	.	.	.	.	.	.	.	.	.	(16a/L	.	16ff#\L	.	.	.
.	.	.	16B/JJ)	.	16g\JJ)	.	.	16b\JJ	.	16gg/JJ)	.	.	.	.	.	.	.	.	.	.	.	.	.	.	.	.	.	.	.	.	.	.	.	.	.	.	.	16b/JJ)	.	16gg\JJ)	.	.	.
.	.	.	8A/L|	.	8f#\L|	.	.	8a\L	.	(<8ff#/L	.	.	.	.	.	.	.	.	.	.	.	.	.	.	.	.	.	.	.	8r	.	8r	.	4A\	.	4A\	.	(8a/L	.	8ff#\L|	.	.	.
.	.	.	8G/|	.	8e\|	.	.	8g\	.	8ee/)	.	.	.	.	.	.	.	.	.	.	.	.	.	.	.	.	.	.	.	8A\L	.	8e\L	.	.	.	.	.	8g'/	.	8ee\|	.	.	.
.	.	.	8F#/|	.	8d\|	.	.	8f#\	.	8dd/	.	.	.	.	.	.	.	.	.	.	.	.	.	.	.	.	.	.	.	8d\	.	8f#\	.	4AA/	.	4AA/	.	8f#'/	.	8dd\|	.	.	.
.	.	.	8E/J|	.	8c#\J|	.	.	8e\J	.	8cc#/J	.	.	.	.	.	.	.	.	.	.	.	.	.	.	.	.	.	.	.	8A\J	.	8e\J	.	.	.	.	.	8e'/J)	.	8cc#\J|	.	.	.
*	*	*	*	*	*	*	*	*Xcue	*	*Xcue	*	*	*	*	*	*	*	*	*	*	*	*	*	*	*	*	*	*	*	*	*	*	*	*	*	*	*	*	*	*	*	*	*
*	*	*	*	*	*	*	*v	*v	*	*	*	*	*	*	*	*	*	*	*	*	*	*	*	*	*	*	*	*	*	*	*	*	*	*	*	*	*	*	*	*	*	*	*
*	*	*	*	*	*	*	*	*	*v	*v	*	*	*	*	*	*	*	*	*	*	*	*	*	*	*	*	*	*	*	*	*	*	*	*	*	*	*	*	*	*	*	*
=5	=5	=5	=5	=5	=5	=5	=5	=5	=5	=5	=5	=5	=5	=5	=5	=5	=5	=5	=5	=5	=5	=5	=5	=5	=5	=5	=5	=5	=5	=5	=5	=5	=5	=5	=5	=5	=5	=5	=5	=5	=5
*	*	*	*	*	*	*	*	*	*	*	*	*ij	*	*	*ij	*	*	*	*	*	*	*	*2\right	*	*	*	*	*	*	*	*	*	*	*	*	*	*	*	*	*	*
!	!	!	!LO:TX:t=P:problem:mixed beam	!LO:DY:a	!	!LO:DY:a	!	!LO:DY:rj:t=f&colon;	!	!	!	!	!	!	!	!	!	!	!	!	!	!	!	!	!	!	!	!	!	!	!	!	!LO:DY:a:t=forte	!	!LO:DY:a:t=f.	!	!	!	!	!	!
4D/	.	.	8F#/L	f	8d\L	f	4dd\	f	4ff# 4a 4d/	.	4D/	San-	.	(4d\	San-	.	2.a\	San-	.	(4ff#\	San-	.	2D\	4dd\	.	4ff#\	.	4d\	f	4f#\	f	4D\	f	4D\	f	2.r	.	2.r	.	4fff#\	f
.	.	.	8d\J	.	8f#\J	.	.	.	.	.	.	.	.	.	.	.	.	.	.	.	.	.	.	.	.	.	.	.	.	.	.	.	.	.	.	.	.	.	.	.	.
4GG/	6	.	4e\	.	4g\	.	4ee\	.	4gg 4a\	.	4G\	.	.	4e\	.	.	.	.	.	4gg\)	.	.	.	4ee\	.	4gg\	.	4e\	.	4g\	.	4GG/	.	4GG/	.	.	.	.	.	4ggg\	.
4AA/	3	.	4c#\	.	4e\	.	4cc#\	.	4ee 4a\	.	4A\	.	.	4c#\)	.	.	.	.	.	4ee\|	.	.	4AA/	4a/	.	4ee\	.	4A/	.	4e\	.	4AA/	.	4AA/	.	.	.	.	.	4eee\	.
=6	=6	=6	=6	=6	=6	=6	=6	=6	=6	=6	=6	=6	=6	=6	=6	=6	=6	=6	=6	=6	=6	=6	=6	=6	=6	=6	=6	=6	=6	=6	=6	=6	=6	=6	=6	=6	=6	=6	=6	=6	=6
*	*	*	*	*	*	*	*^	*	*^	*	*	*	*	*	*	*	*	*	*	*	*	*	*	*	*	*	*	*	*	*	*	*	*	*	*	*	*	*	*	*	*
!	!	!	!	!	!	!	!	!	!	!	!	!	!	!	!	!	!	!	!	!	!	!	!	!	!	!	!	!	!	!	!	!	!	!	!	!	!	!	!	!LO:TX:b:t=P:problem:niezidentyfikowany symbol pod pieciolinią	!	!	!
4D\	#	.	4d\	.	4f#\	.	4dd\	4ryy	.	4ff# 4a\	4reyy	.	4D/	-ctus	.	4d\	-ctus	.	4a\	-ctus	.	4ff#\	-ctus	.	4D\	4dd\	.	4ff#\	.	4d\	.	4f#\	.	4D\	.	4D\	.	4r	.	4r	.	4fff#\	.
*	*	*	*	*	*	*	*cue	*	*	*cue	*	*	*	*Xij	*	*	*	*	*	*	*	*	*	*	*	*	*	*	*	*	*	*	*	*	*	*	*	*	*	*	*	*	*
!	!	!	!	!	!LO:TX:b:t=Solo.	!	!LO:TX:a:t=oboi	!	!	!LO:TX:a:t=oboi	!	!	!	!	!	!	!	!	!	!	!	!	!	!	!	!	!	!	!	!	!	!	!	!	!	!	!	!	!	!LO:TX:b:t=Solo	!	!	!
4r	.	.	4r	.	(8A/L	.	4ree	4rg	.	8a/L	4r	.	4r	.	.	4r	.	.	4r	.	.	4r	.	.	4r	4r	.	4r	.	4r	.	4r	.	4r	.	4r	.	4r	.	(8a\L	.	4r	.
.	.	.	.	.	8d/)	.	.	.	.	8dd/	.	.	.	.	.	.	.	.	.	.	.	.	.	.	.	.	.	.	.	.	.	.	.	.	.	.	.	.	.	8dd\)	.	.	.
!	!	!	!	!	!	!	!LO:N:vis=8	!	!	!	!	!	!	!	!	!	!	!	!	!	!	!	!	!	!	!	!	!	!	!	!	!	!	!	!	!	!	!	!	!	!	!	!
4r	.	.	8r	.	(8d/	.	8ree	4rg	.	8dd/	4r	.	4r	.	.	4r	.	.	4r	.	.	4r	.	.	4r	4r	.	4r	.	4r	.	4r	.	4r	.	4r	.	8r	.	(8dd\	.	4r	.
!	!	!	!	!	!	!	!	!	!	!	!	!	!	!	!	!	!	!	!	!	!	!	!	!	!	!	!	!	!	!	!	!	!	!	!	!	!	!LO:TX:a:t=P:problem:niezidentyfikowany symbol nad pieciolinią	!	!	!	!	!
!	!	!	!	!	!	!	!	!	!	!	!	!	!	!	!	!	!	!	!	!	!	!	!	!	!	!	!	!	!	!	!	!	!	!	!	!	!	!LO:TX:b:t=dolce	!	!	!	!	!
.	.	.	8d\	.	8f#/J)	.	8dd/	.	.	8ff#/J	.	.	.	.	.	.	.	.	.	.	.	.	.	.	.	.	.	.	.	.	.	.	.	.	.	.	.	8dd\	.	8ff#\J)	.	.	.
!	!	!	!	!	!LO:LB:g=original	!	!	!	!	!	!	!	!	!	!	!	!	!	!	!	!	!	!	!	!	!	!	!	!	!	!	!	!	!	!	!	!	!	!	!	!	!	!
=7	=7	=7	=7	=7	=7	=7	=7	=7	=7	=7	=7	=7	=7	=7	=7	=7	=7	=7	=7	=7	=7	=7	=7	=7	=7	=7	=7	=7	=7	=7	=7	=7	=7	=7	=7	=7	=7	=7	=7	=7	=7	=7	=7
!LO:TX:a:t=2	!	!	!	!	!	!	!	!	!	!	!	!	!LO:TX:a:t=2.	!	!	!	!	!	!LO:TX:a:t=2.	!	!	!LO:TX:a:t=2.	!	!	!LO:TX:a:t=2	!LO:TX:a:t=2	!	!LO:TX:a:t=2	!	!	!	!	!LO:DY:t=p&colon;	!	!LO:DY:a:t=Pianis	!LO:TX:a:i:t=Solo	!	!	!	!	!	!LO:TX:a:t=2	!
1.r	.	.	(8e\L	.	(8g\L	.	8ee/L	2.r	.	(<8gg/L	2.r	.	1.r	.	.	1.r	.	.	1.r	.	.	1.r	.	.	1.r	1.r	.	1.r	.	8A/L	p	8e\L	p	4AA/	pp	4AA/	.	(8ee\L	.	8gg\L	.	1.r	.
.	.	.	8c#\)	.	8e\)	.	8cc#/	.	.	8ee/)	.	.	.	.	.	.	.	.	.	.	.	.	.	.	.	.	.	.	.	16A/L	.	16e\L	.	.	.	.	.	8cc#\)	.	8ee\	.	.	.
.	.	.	.	.	.	.	.	.	.	.	.	.	.	.	.	.	.	.	.	.	.	.	.	.	.	.	.	.	.	16A/JJ	.	16e\JJ	.	.	.	.	.	.	.	.	.	.	.
.	.	.	(8e\	.	(8g\	.	8ee/	.	.	(<8gg/	.	.	.	.	.	.	.	.	.	.	.	.	.	.	.	.	.	.	.	8A/L	.	8e\L	.	4C#/	.	4C#/	.	(8ee\	.	8gg\	.	.	.
.	.	.	8c#\J)	.	8e\J)	.	8cc#/J	.	.	8ee/J)	.	.	.	.	.	.	.	.	.	.	.	.	.	.	.	.	.	.	.	8A/J	.	8e\J	.	.	.	.	.	8cc#\J)	.	8ee\J	.	.	.
.	.	.	4d\	.	4f#\	.	4dd/	.	.	4ff#/	.	.	.	.	.	.	.	.	.	.	.	.	.	.	.	.	.	.	.	4d\	.	4f#\	.	4D/	.	4D/	.	4dd\	.	4ff#\	.	.	.
*	*	*	*	*	*	*	*Xcue	*	*	*	*	*	*	*	*	*	*	*	*	*	*	*	*	*	*	*	*	*	*	*	*	*	*	*	*	*	*	*	*	*	*	*	*
=8	=8	=8	=8	=8	=8	=8	=8	=8	=8	=8	=8	=8	=8	=8	=8	=8	=8	=8	=8	=8	=8	=8	=8	=8	=8	=8	=8	=8	=8	=8	=8	=8	=8	=8	=8	=8	=8	=8	=8	=8	=8	=8	=8
*	*	*	*	*	*	*	*	*cue	*	*	*	*	*	*	*	*	*	*	*	*	*	*	*	*	*	*	*	*	*	*	*	*	*	*	*	*	*	*	*	*	*	*	*
.	.	.	(8G/L	.	8e\L|	.	2.r|	8g\L	.	8ee/L	2.r	.	.	.	.	.	.	.	.	.	.	.	.	.	.	.	.	.	.	4r	.	4r	.	4GG/	.	4GG/	.	8g/L	.	8ee\L	.	.	.
.	.	.	16A/L	.	(16f#\L	.	.	(>16a\L	.	(<16ff#/L	.	.	.	.	.	.	.	.	.	.	.	.	.	.	.	.	.	.	.	.	.	.	.	.	.	.	.	16a/L	.	16ff#\L	.	.	.
.	.	.	16B/JJ)	.	16g\JJ)	.	.	16b\JJ)	.	16gg/JJ)	.	.	.	.	.	.	.	.	.	.	.	.	.	.	.	.	.	.	.	.	.	.	.	.	.	.	.	16b/JJ	.	16gg\JJ	.	.	.
.	.	.	8A/L|	.	(8f#\L	.	.	(>8a\L	.	(<8ff#/L	.	.	.	.	.	.	.	.	.	.	.	.	.	.	.	.	.	.	.	8r	.	8r	.	4AA/	.	4AA/	.	8a/L	.	8ff#\L	.	.	.
.	.	.	8G/|	.	8e\)	.	.	8g\	.	8ee/)	.	.	.	.	.	.	.	.	.	.	.	.	.	.	.	.	.	.	.	8A\L	.	8e\L	.	.	.	.	.	8g/	.	8ee\	.	.	.
.	.	.	8F#/|	.	8d\|	.	.	8f#\	.	8dd/	.	.	.	.	.	.	.	.	.	.	.	.	.	.	.	.	.	.	.	8d\	.	8f#\	.	4AA/	.	4AA/	.	8f#/	.	8dd\	.	.	.
.	.	.	8E/J|	.	8c#\J|	.	.	8e\J)	.	8cc#/J	.	.	.	.	.	.	.	.	.	.	.	.	.	.	.	.	.	.	.	8A\J	.	8e\J	.	.	.	.	.	8e/J	.	8cc#\J	.	.	.
*	*	*	*	*	*	*	*	*Xcue	*	*Xcue	*	*	*	*	*	*	*	*	*	*	*	*	*	*	*	*	*	*	*	*	*	*	*	*	*	*	*	*	*	*	*	*	*
*	*	*	*	*	*	*	*v	*v	*	*	*	*	*	*	*	*	*	*	*	*	*	*	*	*	*	*	*	*	*	*	*	*	*	*	*	*	*	*	*	*	*	*	*
*	*	*	*	*	*	*	*	*	*v	*v	*	*	*	*	*	*	*	*	*	*	*	*	*	*	*	*	*	*	*	*	*	*	*	*	*	*	*	*	*	*	*	*
!	!	!	!LO:LB:g=original	!	!	!	!	!	!	!	!	!	!	!	!	!	!	!	!	!	!	!	!	!	!	!	!	!	!	!	!	!LO:LB:g=original	!	!	!	!	!	!	!	!	!
=9	=9	=9	=9	=9	=9	=9	=9	=9	=9	=9	=9	=9	=9	=9	=9	=9	=9	=9	=9	=9	=9	=9	=9	=9	=9	=9	=9	=9	=9	=9	=9	=9	=9	=9	=9	=9	=9	=9	=9	=9	=9
!	!	!	!LO:TX:t=P:problem:mixed beam	!LO:DY:a	!	!LO:DY:a	!	!	!	!	!	!	!	!	!	!	!	!	!	!	!	!	!	!	!	!	!	!	!	!	!	!	!LO:DY:a:t=forte	!	!	!LO:TX:a:t=2	!	!LO:TX:a:t=2	!	!	!
4D\	.	.	8F#/L	f	8d\L	f	4dd\	.	4ff# 4a 4d/	.	4D/	San-	.	(4d\	San-	.	2.a\	San-	.	(4ff#\	San-	.	2D\	4dd\	.	4ff#\	.	4F#/	f	4d\	f	4D/	f	4D\	.	1.r	.	1.r	.	4fff#\	f
.	.	.	8d\J	.	8f#\J	.	.	.	.	.	.	.	.	.	.	.	.	.	.	.	.	.	.	.	.	.	.	.	.	.	.	.	.	.	.	.	.	.	.	.	.
4GG/	6	.	4e\	.	4g\	.	4ee\	.	4gg 4a\	.	4G/	.	.	4e\	.	.	.	.	.	4gg\)	.	.	.	4ee\	.	4gg\	.	4A/	.	4e\	.	4GG/	.	4G\	.	.	.	.	.	4ggg\	.
4AA/	3	.	4c#\	.	4e\	.	4cc#\	.	4ee 4a\	.	4A/	.	.	4c#\)	.	.	.	.	.	4ee\|	.	.	4AA/	4a/	.	4ee\	.	4A/	.	4e\	.	4AA/	.	4A\	.	.	.	.	.	4eee\	.
!	!	!	!	!	!	!	!LO:LB:g=original	!	!	!	!	!	!	!	!	!	!	!	!	!LO:LB:g=original	!	!	!	!	!	!	!	!	!	!	!	!	!	!LO:LB:g=original	!	!	!	!	!	!	!
=10	=10	=10	=10	=10	=10	=10	=10	=10	=10	=10	=10	=10	=10	=10	=10	=10	=10	=10	=10	=10	=10	=10	=10	=10	=10	=10	=10	=10	=10	=10	=10	=10	=10	=10	=10	=10	=10	=10	=10	=10	=10
!	!	!	!	!	!	!	!	!	!	!	!	!	!	!	!	!	!	!	!	!	!	!	!	!	!	!LO:TX:a:t=Soli	!	!	!	!	!	!	!	!	!	!	!	!	!	!	!
!	!	!	!	!	!	!	!LO:TX:t=P:problem:mixed beam	!	!	!	!	!	!	!	!	!	!	!	!	!	!	!	!LO:TX:t=P:problem:takt zapisany repetycją	!	!	!LO:TX:t=P:problem:mixed beam	!	!LO:TX:t=P:problem:mixed beam	!	!LO:TX:t=P:problem:mixed beam	!	!	!	!	!	!	!	!	!	!	!
4D\	#	.	4d\	.	8.f#\L	.	8.dd\L	.	4ff# 4a\	.	4D/	-ctuſ	.	4d\	-ctus	.	4a\	-ctus	.	4ff#\	-ctus	.	2D\yy	8.d/L	.	8.dd\L	.	8.d\L	.	8.f#\L	.	4D\	.	4D\	.	.	.	.	.	4fff#\	.
*	*	*	*	*	*	*	*	*	*	*	*	*	*	*	*Xij	*	*	*	*	*	*	*	*	*	*	*	*	*	*	*	*	*	*	*	*	*	*	*	*	*	*
!	!	!	!	!	!	!	!	!	!	!	!	!	!	!	!	!	!	!	!	!	!	!	!	!LO:TX:a:i:t=Solo	!	!	!	!	!	!	!	!	!	!	!	!	!	!	!	!	!
.	.	.	.	.	16d\Jk	.	16d/Jk	.	.	.	.	.	.	.	.	.	.	.	.	.	.	.	.	16d/Jk	.	16d/Jk	.	16D/Jk	.	16D/Jk	.	.	.	.	.	.	.	.	.	.	.
4r	.	.	4r	.	8.f#\L	.	8.f#/L	.	4r	.	4r	.	.	4r	.	.	4r	.	.	4r	.	.	.	8.f#/L	.	8.f#/L	.	8.F#/L	.	8.F#/L	f	4r	.	4r	.	.	.	.	.	4r	.
.	.	.	.	.	16f#\Jk	.	16f#/K	.	.	.	.	.	.	.	.	.	.	.	.	.	.	.	.	16f#/Jk	.	16f#/Jk	.	16F#/K	.	16F#/K	.	.	.	.	.	.	.	.	.	.	.
4r	.	.	4r	.	8.a\L	.	8.a/	.	4r	.	4r	.	.	4r	.	.	4r	.	.	4r	.	.	4AA/yy	8.a/L	.	8.a/L	.	8.A/	.	8.A/	.	4r	.	4r	.	.	.	.	.	4r	.
.	.	.	.	.	16a\Jk	.	16a/Jk	.	.	.	.	.	.	.	.	.	.	.	.	.	.	.	.	16a/Jk	.	16a/Jk	.	16A/Jk	.	16A/Jk	.	.	.	.	.	.	.	.	.	.	.
!	!	!	!	!	!	!	!	!	!LO:LB:g=original	!	!	!	!	!	!	!	!	!	!	!	!	!	!	!	!	!	!	!	!	!LO:LB:g=original	!	!	!	!	!	!	!	!	!	!	!
=11	=11	=11	=11	=11	=11	=11	=11	=11	=11	=11	=11	=11	=11	=11	=11	=11	=11	=11	=11	=11	=11	=11	=11	=11	=11	=11	=11	=11	=11	=11	=11	=11	=11	=11	=11	=11	=11	=11	=11	=11	=11
*	*	*	*	*	*	*	*^	*	*^	*	*	*	*	*	*	*	*	*	*	*	*	*	*	*	*	*	*	*	*	*	*	*	*	*	*	*	*	*	*	*	*
!	!	!LO:DY:a:t=piano	!LO:TX:a:t=1	!	!	!	!	!	!	!LO:TX:a:t=oboi	!	!	!LO:TX:a:t=1.	!	!	!LO:TX:a:t=1.	!	!	!LO:TX:a:t=1.	!	!	!LO:TX:a:t=1.	!	!	!	!	!	!	!	!	!	!	!	!	!	!	!	!	!	!	!	!	!
4D\	.	p	2.r	.	(8dd\L	.	8r	4dd\	.	8r	2.r	.	2.r	.	.	2.r	.	.	2.r	.	.	2.r	.	.	4D\	4dd\	.	4dd\	.	4d\	.	4d\	.	4D\	.	4D\	.	8r	.	8r	.	4r	.
*	*	*	*	*	*	*	*cue	*	*	*cue	*	*	*	*	*	*	*	*	*	*	*	*	*	*	*	*	*	*	*	*	*	*	*	*	*	*	*	*	*	*	*	*	*
!	!	!	!	!	!	!	!	!	!	!	!	!	!	!	!	!	!	!	!	!	!	!	!	!	!	!	!	!	!	!	!	!	!	!	!	!	!	!LO:TX:a:t=Solo	!	!	!	!	!
.	.	.	.	.	8a\	.	8ff#/L	.	.	8aa'/L	.	.	.	.	.	.	.	.	.	.	.	.	.	.	.	.	.	.	.	.	.	.	.	.	.	.	.	8ff#\	.	8aa\	.	.	.
4r	.	.	.	.	8g\	.	8ee/	4r	.	(<8gg/	.	.	.	.	.	.	.	.	.	.	.	.	.	.	4r	4r	.	4r	.	4r	.	4r	.	4r	.	4r	.	8ee\L	.	(8gg\L	.	8r	.
.	.	.	.	.	8f#\	.	(<8dd/	.	.	8ff#/	.	.	.	.	.	.	.	.	.	.	.	.	.	.	.	.	.	.	.	.	.	.	.	.	.	.	.	8dd\	.	8ff#\)	.	8fff#\L	.
4GG/	.	.	.	.	8e\	.	8g/	4r	.	8ee/	.	.	.	.	.	.	.	.	.	.	.	.	.	.	4r	4r	.	4r	.	4r	.	4r	.	4G\	.	4G\	.	8cc#\	.	8ee'\	.	8eee\	.
!	!	!	!	!	!	!	!	!	!	!	!	!	!	!	!	!LO:SIC:v:t=custos d na końcu linijki	!	!	!	!	!	!	!	!	!	!	!	!	!	!	!	!	!	!	!	!	!	!	!	!	!	!	!
.	.	.	.	.	8d\J)	.	8f#/J)	.	.	8dd/J)	.	.	.	.	.	.	.	.	.	.	.	.	.	.	.	.	.	.	.	.	.	.	.	.	.	.	.	8b\J	.	8dd\J	.	8ddd\J	.
*	*	*	*	*	*	*	*Xcue	*	*	*Xcue	*	*	*	*	*	*	*	*	*	*	*	*	*	*	*	*	*	*	*	*	*	*	*	*	*	*	*	*	*	*	*	*	*
*	*	*	*	*	*	*	*v	*v	*	*	*	*	*	*	*	*	*	*	*	*	*	*	*	*	*	*	*	*	*	*	*	*	*	*	*	*	*	*	*	*	*	*	*
*	*	*	*	*	*	*	*	*	*v	*v	*	*	*	*	*	*	*	*	*	*	*	*	*	*	*	*	*	*	*	*	*	*	*	*	*	*	*	*	*	*	*	*
!LO:LB:g=original	!	!	!	!	!	!	!	!	!	!	!	!	!	!LO:LB:g=original	!	!	!	!	!	!	!	!	!	!	!	!	!	!LO:LB:g=original	!	!	!	!	!	!	!	!	!	!LO:LB:g=original	!	!	!
=12	=12	=12	=12	=12	=12	=12	=12	=12	=12	=12	=12	=12	=12	=12	=12	=12	=12	=12	=12	=12	=12	=12	=12	=12	=12	=12	=12	=12	=12	=12	=12	=12	=12	=12	=12	=12	=12	=12	=12	=12	=12
*	*	*	*	*	*	*	*	*	*	*	*	*	*	*	*	*	*	*	*	*	*	*	*	*	*	*	*	*	*	*2\right	*	*	*	*	*	*2\right	*	*2\right	*	*2\right	*
!	!	!	!	!	!	!	!	!	!	!	!	!	!	!	!	!	!	!	!	!	!	!	!	!	!	!	!	!	!	!	!	!	!	!LO:TX:t=P:problem:mixed beam	!	!	!	!	!	!	!
!	!	!LO:DY:a:t=forte	!	!	!	!	!	!	!	!	!	!	!	!	!	!	!	!	!	!	!	!	!	!	!	!	!	!	!	!	!	!LO:TX:t=P:problem:mixed beam	!	!	!	!	!	!	!	!	!
4AA/	7	f	(8g\L	.	(16g\LL	fp	(16cc#\LL	.	(8gg\L	.	4.c#\	Do-	.	4.e\	Do-	.	4.a\	Do-	.	4.gg\	Do-	.	2.AA/	8a/L	.	8ee\L	.	2.A/	.	2.e\	.	8A\L	.	8A\L|	.	2.ee\	.	2.gg\	f	2.aa\	.
.	.	.	.	.	16a\)	.	16ee\)	.	.	.	.	.	.	.	.	.	.	.	.	.	.	.	.	.	.	.	.	.	.	.	.	.	.	.	.	.	.	.	.	.	.
.	.	.	8e\J)	.	(16g\	.	(16cc#\	.	8ee\J)	.	.	.	.	.	.	.	.	.	.	.	.	.	.	16a/L	.	16ee\L	.	.	.	.	.	8AA/|	.	8AA/|	.	.	.	.	.	.	.
.	.	.	.	.	16a\JJ)	.	16ee\JJ)	.	.	.	.	.	.	.	.	.	.	.	.	.	.	.	.	16a/JJ	.	16ee\JJ	.	.	.	.	.	.	.	.	.	.	.	.	.	.	.
*	*	*	*	*	*	*	*	*	*	*	*	*	*	*	*	*	*	*	*	*	*	*	*	*tremolo	*	*	*	*	*	*	*	*	*	*	*	*	*	*	*	*	*
4r	.	.	4c#\	.	(16g\LL	.	(16cc#\LL	.	4A/	.	.	.	.	.	.	.	.	.	.	.	.	.	.	8a/L	.	8ee\L	.	.	.	.	.	8C#/|	.	8C#/|	.	.	.	.	.	.	.
.	.	.	.	.	16a\)	.	16ee\)	.	.	.	.	.	.	.	.	.	.	.	.	.	.	.	.	.	.	.	.	.	.	.	.	.	.	.	.	.	.	.	.	.	.
.	.	.	.	.	(16g\	.	(16cc#\	.	.	.	8c#\	-mi-	.	8e\	-mi-	.	8a\	-mi-	.	8gg\	-mi-	.	.	8a/	.	8ee\	.	.	.	.	.	8E/J|	.	8E/J|	.	.	.	.	.	.	.
.	.	.	.	.	16a\JJ)	.	16ee\JJ)	.	.	.	.	.	.	.	.	.	.	.	.	.	.	.	.	.	.	.	.	.	.	.	.	.	.	.	.	.	.	.	.	.	.
4AA/	.	.	(8g\L	.	(16g\LL	.	(16cc#\LL	.	(8gg\L	.	4c#\	-nuſ	.	4e\	-nus	.	4a\	-nus	.	4gg\	-nus	.	.	8a/	.	8ee\	.	.	.	.	.	8A\L|	.	8A\L|	.	.	.	.	.	.	.
.	.	.	.	.	16a\)	.	16ee\)	.	.	.	.	.	.	.	.	.	.	.	.	.	.	.	.	.	.	.	.	.	.	.	.	.	.	.	.	.	.	.	.	.	.
.	.	.	8e\J)	.	(16g\	.	(16cc#\	.	8ee\J)	.	.	.	.	.	.	.	.	.	.	.	.	.	.	8a/J	.	8ee\J	.	.	.	.	.	8AA/J|	.	8AA/J	.	.	.	.	.	.	.
.	.	.	.	.	16a\JJ)	.	16ee\JJ)	.	.	.	.	.	.	.	.	.	.	.	.	.	.	.	.	.	.	.	.	.	.	.	.	.	.	.	.	.	.	.	.	.	.
*	*	*	*	*	*	*	*	*	*	*	*	*	*	*	*	*	*	*	*	*	*	*	*	*Xtremolo	*	*	*	*	*	*	*	*	*	*	*	*	*	*	*	*	*
!	!	!	!	!	!	!	!	!	!	!	!	!	!	!	!	!	!	!	!	!	!	!	!	!	!	!	!	!	!	!	!	!	!	!	!	!LO:LB:g=original	!	!	!	!	!
=13	=13	=13	=13	=13	=13	=13	=13	=13	=13	=13	=13	=13	=13	=13	=13	=13	=13	=13	=13	=13	=13	=13	=13	=13	=13	=13	=13	=13	=13	=13	=13	=13	=13	=13	=13	=13	=13	=13	=13	=13	=13
*	*	*	*	*	*	*	*	*	*	*	*2\right	*	*	*2\right	*	*	*	*	*	*2\right	*	*	*	*	*	*	*	*2\right	*	*	*	*	*	*	*	*	*	*	*	*	*
!	!	!	!	!	!	!	!	!	!	!	!	!	!	!	!	!	!	!	!	!	!	!	!	!	!	!	!	!	!	!	!	!	!	!	!	!	!LO:DY:t=for.	!	!	!	!
4D\	3	.	(8f#\L	.	(16f#\LL	.	(16dd\LL	.	8ff#'\L	.	2d\	De-	.	2d\	De-	.	2a\	De-	.	2ff#\	de-	.	2.D\	4.dd\	.	4.ff#\	.	2.d\	.	2.f#\	.	8r	.	8r	.	2.dd\	f	2.ff#\	.	2.aa\	.
.	.	.	.	.	16a\)	.	16ff#\)	.	.	.	.	.	.	.	.	.	.	.	.	.	.	.	.	.	.	.	.	.	.	.	.	.	.	.	.	.	.	.	.	.	.
!	!	!	!	!	!	!	!	!	!	!	!	!	!	!	!	!	!	!	!	!	!	!	!	!	!	!	!	!	!	!	!	!LO:TX:t=P:problem:mixed beam	!	!LO:TX:t=P:problem:mixed beam	!	!	!	!	!	!	!
.	.	.	8d\J)	.	(16f#\	.	(16dd\	.	8dd'\J	.	.	.	.	.	.	.	.	.	.	.	.	.	.	.	.	.	.	.	.	.	.	8D\L|	.	8D\L|	.	.	.	.	.	.	.
.	.	.	.	.	16a\JJ)	.	16ff#\JJ)	.	.	.	.	.	.	.	.	.	.	.	.	.	.	.	.	.	.	.	.	.	.	.	.	.	.	.	.	.	.	.	.	.	.
4r	.	.	4A/|	.	(16f#\LL	.	(16dd\LL	.	4A/	.	.	.	.	.	.	.	.	.	.	.	.	.	.	.	.	.	.	.	.	.	.	8F#\|	.	8F#\|	.	.	.	.	.	.	.
.	.	.	.	.	16a\)	.	16ff#\)	.	.	.	.	.	.	.	.	.	.	.	.	.	.	.	.	.	.	.	.	.	.	.	.	.	.	.	.	.	.	.	.	.	.
.	.	.	.	.	(16f#\	.	(16dd\	.	.	.	.	.	.	.	.	.	.	.	.	.	.	.	.	8dd\	.	8ff#\	.	.	.	.	.	8A\|	.	8A\|	.	.	.	.	.	.	.
.	.	.	.	.	16a\JJ)	.	16ff#\JJ)	.	.	.	.	.	.	.	.	.	.	.	.	.	.	.	.	.	.	.	.	.	.	.	.	.	.	.	.	.	.	.	.	.	.
4D\	.	.	(8f#\L	.	(16f#\LL	.	(16dd\LL	.	8ff#'\L	.	4D/	-uſ	.	4d\	-us	.	4a\	-us	.	4ff#\	-us	.	.	4dd\	.	4ff#\	.	.	.	.	.	8d\|	.	8d\|	.	.	.	.	.	.	.
.	.	.	.	.	16a\)	.	16ff#\)	.	.	.	.	.	.	.	.	.	.	.	.	.	.	.	.	.	.	.	.	.	.	.	.	.	.	.	.	.	.	.	.	.	.
.	.	.	8d\J)	.	(16f#\	.	(16dd\	.	8dd'\J	.	.	.	.	.	.	.	.	.	.	.	.	.	.	.	.	.	.	.	.	.	.	8D/J|	.	8D/J|>	.	.	.	.	.	.	.
.	.	.	.	.	16a\JJ)	.	16ff#\JJ)	.	.	.	.	.	.	.	.	.	.	.	.	.	.	.	.	.	.	.	.	.	.	.	.	.	.	.	.	.	.	.	.	.	.
!	!	!	!	!	!	!	!	!	!	!	!LO:LB:g=original	!	!	!	!	!	!	!	!	!	!	!	!	!	!	!	!	!	!	!	!	!	!	!	!	!	!	!	!	!LO:LB:g=original	!
=14	=14	=14	=14	=14	=14	=14	=14	=14	=14	=14	=14	=14	=14	=14	=14	=14	=14	=14	=14	=14	=14	=14	=14	=14	=14	=14	=14	=14	=14	=14	=14	=14	=14	=14	=14	=14	=14	=14	=14	=14	=14
*	*	*	*	*	*	*	*	*	*	*	*	*	*	*	*	*	*	*ij	*	*	*	*	*	*	*	*	*	*	*	*	*	*	*	*	*	*	*	*	*	*	*
!	!	!	!	!	!	!	!	!	!	!	!	!	!	!	!	!	!	!	!	!	!	!	!	!	!	!	!	!	!	!	!LO:DY:t=pi&colon;	!LO:TX:t=P:problem:tt.14-15 zapisane repetycją	!	!	!	!	!	!	!	!	!
!	!	!	!	!	!LO:TX:t=P:problem:tt.14-15 zapisane repetycją	!	!	!LO:DY:rj:t=pia.	!	!LO:DY:t=pia&colon;	!	!	!LO:DY:a	!	!	!LO:DY:a:t=pia&colon;	!	!	!	!	!	!LO:DY:a	!	!	!LO:DY:a	!	!LO:DY:a:t=piano	!	!	!	!	!LO:TX:t=P:problem:mixed beam	!	!	!LO:DY:a:t=Piano	!	!LO:DY:t=p.	!	!LO:DY:t=p.	!	!
4AA/	7 5	.	(8g\L	.	(16g\LLyy	fp	(16cc#\LL	p	8gg'\L	p	4.c#\	Do-	p	4.e\	Do-	p	4.a\	Do-	.	4.gg\	Do-	p	2.AA/	8a/L	p	8ee\L	p	2.A/	p	2.e\	p	8A\Lyy	.	8r	p	2.ee\	p	2.gg\	p	2.aa\	p
.	.	.	.	.	16a\)yy	.	16ee\)	.	.	.	.	.	.	.	.	.	.	.	.	.	.	.	.	.	.	.	.	.	.	.	.	.	.	.	.	.	.	.	.	.	.
.	.	.	8e\J)	.	(16g\yy	.	(16cc#\	.	8ee'\J	.	.	.	.	.	.	.	.	.	.	.	.	.	.	16a/L	.	16ee\L	.	.	.	.	.	8AA/yy|	.	8AA/L|	.	.	.	.	.	.	.
.	.	.	.	.	16a\JJ)yy	.	16ee\JJ)	.	.	.	.	.	.	.	.	.	.	.	.	.	.	.	.	16a/JJ	.	16ee\JJ	.	.	.	.	.	.	.	.	.	.	.	.	.	.	.
*	*	*	*	*	*	*	*	*	*	*	*	*	*	*	*	*	*	*	*	*	*	*	*	*	*	*2\right	*	*	*	*	*	*	*	*	*	*	*	*	*	*	*
*	*	*	*	*	*	*	*	*	*	*	*	*	*	*	*	*	*	*	*	*	*	*	*	*tremolo	*	*tremolo	*	*	*	*	*	*	*	*	*	*	*	*	*	*	*
4r	.	.	4A/	.	(16g\LLyy	.	(16cc#\LL	.	4A/	.	.	.	.	.	.	.	.	.	.	.	.	.	.	8a/L	.	8ee\L	.	.	.	.	.	8C#/yy|	.	8C#/|	.	.	.	.	.	.	.
.	.	.	.	.	16a\)yy	.	16ee\)	.	.	.	.	.	.	.	.	.	.	.	.	.	.	.	.	.	.	.	.	.	.	.	.	.	.	.	.	.	.	.	.	.	.
!	!	!	!	!	!	!	!	!	!	!	!	!	!	!	!	!	!	!	!LO:DY:a:t=pia&colon;	!	!	!	!	!	!	!	!	!	!	!	!	!	!	!	!	!	!	!	!	!	!
.	.	.	.	.	(16g\yy	.	(16cc#\	.	.	.	8c#\	-mi-	.	8e\	-mi-	.	8a\	-mi-	p	8gg\	-mi-	.	.	8a/	.	8ee\	.	.	.	.	.	8E/Jyy|	.	8E/J|	.	.	.	.	.	.	.
.	.	.	.	.	16a\JJ)yy	.	16ee\JJ)	.	.	.	.	.	.	.	.	.	.	.	.	.	.	.	.	.	.	.	.	.	.	.	.	.	.	.	.	.	.	.	.	.	.
!	!	!	!	!	!	!	!	!	!	!	!	!	!	!	!	!	!	!	!	!	!	!	!	!	!	!	!	!	!	!	!	!	!	!LO:TX:t=P:problem:mixed beam	!	!	!	!	!	!	!
4AA/	.	.	(8g\L	.	(16g\LLyy	.	(16cc#\LL	.	8gg'\L	.	4c#\	-nuſ	.	4e\	-nus	.	4a\	-nus	.	4gg\	-nus	.	.	8a/	.	8ee\	.	.	.	.	.	8A\Lyy|	.	8A\L|	.	.	.	.	.	.	.
.	.	.	.	.	16a\)yy	.	16ee\)	.	.	.	.	.	.	.	.	.	.	.	.	.	.	.	.	.	.	.	.	.	.	.	.	.	.	.	.	.	.	.	.	.	.
.	.	.	8e\J)	.	(16g\yy	.	(16cc#\	.	8ee'\J	.	.	.	.	.	.	.	.	.	.	.	.	.	.	8a/J	.	8ee\J	.	.	.	.	.	8AA/Jyy|	.	8AA/J|	.	.	.	.	.	.	.
.	.	.	.	.	16a\JJ)yy	.	16ee\JJ)	.	.	.	.	.	.	.	.	.	.	.	.	.	.	.	.	.	.	.	.	.	.	.	.	.	.	.	.	.	.	.	.	.	.
*	*	*	*	*	*	*	*	*	*	*	*	*	*	*	*	*	*	*	*	*	*	*	*	*Xtremolo	*	*Xtremolo	*	*	*	*	*	*	*	*	*	*	*	*	*	*	*
!	!	!	!	!	!	!	!	!	!	!	!	!	!	!	!	!	!	!	!	!	!	!	!	!LO:LB:g=original	!	!LO:LB:g=original	!	!	!	!	!	!	!	!	!	!	!	!	!	!	!
=15	=15	=15	=15	=15	=15	=15	=15	=15	=15	=15	=15	=15	=15	=15	=15	=15	=15	=15	=15	=15	=15	=15	=15	=15	=15	=15	=15	=15	=15	=15	=15	=15	=15	=15	=15	=15	=15	=15	=15	=15	=15
4D\	.	.	(8f#\L	.	(16f#\LLyy	.	16dd\LL	.	8ff#'\L	.	2d\	De-	.	2d\	De-	.	2a\	De-	.	2ff#\	De-	.	2.D\	4.dd\	f	4.ff#\	.	2.d\	.	2.f#\	.	8ryy	.	8r	.	2.dd\	.	2.ff#\	.	2.aa\	.
.	.	.	.	.	16a\)yy	.	16ff#\	.	.	.	.	.	.	.	.	.	.	.	.	.	.	.	.	.	.	.	.	.	.	.	.	.	.	.	.	.	.	.	.	.	.
!	!	!	!	!	!	!	!	!	!	!	!	!	!	!	!	!	!	!	!	!	!	!	!	!	!	!	!	!	!	!	!	!LO:TX:t=P:problem:mixed beam	!	!LO:TX:t=P:problem:mixed beam	!	!	!	!	!	!	!
.	.	.	8d\J)	.	(16f#\yy	.	16dd\	.	8dd'\J	.	.	.	.	.	.	.	.	.	.	.	.	.	.	.	.	.	.	.	.	.	.	8D\Lyy|	.	8D\L|	.	.	.	.	.	.	.
.	.	.	.	.	16a\JJ)yy	.	16ff#\JJ	.	.	.	.	.	.	.	.	.	.	.	.	.	.	.	.	.	.	.	.	.	.	.	.	.	.	.	.	.	.	.	.	.	.
4r	.	.	4A/	.	(16f#\LLyy	.	(16dd\LL	.	4A/	.	.	.	.	.	.	.	.	.	.	.	.	.	.	.	.	.	.	.	.	.	.	8F#\yy|	.	8F#\|	.	.	.	.	.	.	.
.	.	.	.	.	16a\)yy	.	16ff#\)	.	.	.	.	.	.	.	.	.	.	.	.	.	.	.	.	.	.	.	.	.	.	.	.	.	.	.	.	.	.	.	.	.	.
.	.	.	.	.	(16f#\yy	.	(16dd\	.	.	.	.	.	.	.	.	.	.	.	.	.	.	.	.	8dd\	.	8ff#\	.	.	.	.	.	8A\yy|	.	8A\|	.	.	.	.	.	.	.
.	.	.	.	.	16a\JJ)yy	.	16ff#\JJ)	.	.	.	.	.	.	.	.	.	.	.	.	.	.	.	.	.	.	.	.	.	.	.	.	.	.	.	.	.	.	.	.	.	.
4D\	.	.	(8f#\L	.	(16f#\LLyy	.	(16dd\LL	.	8ff#'\L	.	4D/	-uſ	.	4d\	-us	.	4a\	-us	.	4ff#\	-us	.	.	4dd\	.	4ff#\	.	.	.	.	.	8d\yy|	.	8d\	.	.	.	.	.	.	.
*	*	*	*	*	*	*	*	*	*	*	*	*	*	*	*	*	*	*Xij	*	*	*	*	*	*	*	*	*	*	*	*	*	*	*	*	*	*	*	*	*	*	*
.	.	.	.	.	16a\)yy	.	16ff#\)	.	.	.	.	.	.	.	.	.	.	.	.	.	.	.	.	.	.	.	.	.	.	.	.	.	.	.	.	.	.	.	.	.	.
.	.	.	8d\J)	.	(16f#\yy	.	(16dd\	.	8dd'\J	.	.	.	.	.	.	.	.	.	.	.	.	.	.	.	.	.	.	.	.	.	.	8D/Jyy|	.	8D/J	.	.	.	.	.	.	.
.	.	.	.	.	16a\JJ)yy	.	16ff#\JJ)	.	.	.	.	.	.	.	.	.	.	.	.	.	.	.	.	.	.	.	.	.	.	.	.	.	.	.	.	.	.	.	.	.	.
!	!	!	!	!	!	!	!LO:LB:g=original	!	!	!	!	!	!	!	!	!	!	!	!	!	!	!	!	!	!	!	!	!	!	!	!	!	!	!	!	!	!	!	!	!	!
=16	=16	=16	=16	=16	=16	=16	=16	=16	=16	=16	=16	=16	=16	=16	=16	=16	=16	=16	=16	=16	=16	=16	=16	=16	=16	=16	=16	=16	=16	=16	=16	=16	=16	=16	=16	=16	=16	=16	=16	=16	=16
!	!	!LO:DY:a:t=Forte	!	!	!	!	!	!LO:DY:rj:t=f	!	!LO:DY:t=for.	!	!	!LO:DY:a	!	!	!LO:DY:a:t=fort	!	!	!LO:DY:a	!	!	!LO:DY:a	!	!	!	!	!	!	!	!	!	!	!LO:DY:a:t=forte	!	!LO:DY:a:t=forte	!	!	!	!LO:DY:t=f.	!	!
16.G#X\LL	.	f	16.g#X\LL	.	16.bLL 16.e\	f	(16dd\LL	f	(16bb\LL	f	2G#X\	Sa-	f	2e\	Sa-	f	2b\	Sa-	f	2dd\	Sa-	f	2.r	8.ee\L	.	8.ee\L	f	8.e\L	f	8.e\L	.	8.E\L	f	8.G#X\L	f	2.dd\	f	2.gg#X\	f	16.ddd\LL	f
.	.	.	.	.	.	.	16ee\	.	16gg#X\)	.	.	.	.	.	.	.	.	.	.	.	.	.	.	.	.	.	.	.	.	.	.	.	.	.	.	.	.	.	.	.	.
32G#\K	.	.	32g#\K	.	32bK 32e\	.	.	.	.	.	.	.	.	.	.	.	.	.	.	.	.	.	.	.	.	.	.	.	.	.	.	.	.	.	.	.	.	.	.	32ddd\K	.
16.G#\	.	.	16.g#\	.	16.b 16.e\	.	16dd\	.	(16bb\	.	.	.	.	.	.	.	.	.	.	.	.	.	.	.	.	.	.	.	.	.	.	.	.	.	.	.	.	.	.	16.ddd\	.
.	.	.	.	.	.	.	16ee\JJ)	.	16gg#\JJ)	.	.	.	.	.	.	.	.	.	.	.	.	.	.	16ee\Jk	.	16ee\K	.	16e\Jk	.	16e\Jk	.	16E\K	.	16G#\K	.	.	.	.	.	.	.
32G#\JJk	.	.	32g#\JJk	.	32bJJk 32e\	.	.	.	.	.	.	.	.	.	.	.	.	.	.	.	.	.	.	.	.	.	.	.	.	.	.	.	.	.	.	.	.	.	.	32ddd\JJk	.
!	!	!	!	!	!LO:LB:g=original	!	!	!	!	!	!	!	!	!	!	!	!	!	!	!	!	!	!	!	!	!	!	!	!	!	!	!	!	!	!	!	!	!	!	!	!
16.G#\LL	.	.	16.g#\LL	.	16.bLL 16.e\	.	(16dd\LL	.	(16bb\LL	.	.	.	.	.	.	.	.	.	.	.	.	.	.	8.ee\L	.	8.ee\	.	8.e\L	.	8.e\L	f	8.E\	.	8.G#\	.	.	.	.	.	16.ddd\LL	.
.	.	.	.	.	.	.	16ee\	.	16gg#\)	.	.	.	.	.	.	.	.	.	.	.	.	.	.	.	.	.	.	.	.	.	.	.	.	.	.	.	.	.	.	.	.
32G#\K	.	.	32g#\K	.	32bK 32e\	.	.	.	.	.	.	.	.	.	.	.	.	.	.	.	.	.	.	.	.	.	.	.	.	.	.	.	.	.	.	.	.	.	.	32ddd\K	.
16.G#\	.	.	16.g#\	.	16.b 16.e\	.	16dd\	.	(16bb\	.	.	.	.	.	.	.	.	.	.	.	.	.	.	.	.	.	.	.	.	.	.	.	.	.	.	.	.	.	.	16.ddd\	.
.	.	.	.	.	.	.	16ee\JJ)	.	16gg#\JJ)	.	.	.	.	.	.	.	.	.	.	.	.	.	.	16ee\Jk	.	16ee\K	.	16e\Jk	.	16e\Jk	.	16E\K	.	16G#\K	.	.	.	.	.	.	.
32G#\JJk	.	.	32g#\JJk	.	32bJJk 32e\	.	.	.	.	.	.	.	.	.	.	.	.	.	.	.	.	.	.	.	.	.	.	.	.	.	.	.	.	.	.	.	.	.	.	32ddd\JJk	.
16.G#\LL	.	.	16.g#\LL	.	16.bLL 16.e\	.	(16dd\LL	.	(16bb\LL	.	4G#\	-ba-	.	4e\	-ba-	.	4b\	-ba-	.	4dd\	-ba-	.	.	8.ee\L	.	8.ee\	.	8.e\L	.	8.e\L	.	8.E\	.	8.G#\	.	.	.	.	.	16.ddd\LL	.
.	.	.	.	.	.	.	16ee\	.	16gg#\)	.	.	.	.	.	.	.	.	.	.	.	.	.	.	.	.	.	.	.	.	.	.	.	.	.	.	.	.	.	.	.	.
32G#\K	.	.	32g#\K	.	32bK 32e\	.	.	.	.	.	.	.	.	.	.	.	.	.	.	.	.	.	.	.	.	.	.	.	.	.	.	.	.	.	.	.	.	.	.	32ddd\K	.
16.G#\	.	.	16.g#\	.	16.b 16.e\	.	16dd\	.	(16bb\	.	.	.	.	.	.	.	.	.	.	.	.	.	.	.	.	.	.	.	.	.	.	.	.	.	.	.	.	.	.	16.ddd\	.
.	.	.	.	.	.	.	16ee\JJ)	.	16gg#\JJ)	.	.	.	.	.	.	.	.	.	.	.	.	.	.	16ee\Jk	.	16ee\Jk	.	16e\Jk	.	16e\Jk	.	16E\Jk	.	16G#\Jk	.	.	.	.	.	.	.
32G#\JJk	.	.	32g#\JJk	.	32bJJk 32e\	.	.	.	.	.	.	.	.	.	.	.	.	.	.	.	.	.	.	.	.	.	.	.	.	.	.	.	.	.	.	.	.	.	.	32ddd\JJk	.
=17	=17	=17	=17	=17	=17	=17	=17	=17	=17	=17	=17	=17	=17	=17	=17	=17	=17	=17	=17	=17	=17	=17	=17	=17	=17	=17	=17	=17	=17	=17	=17	=17	=17	=17	=17	=17	=17	=17	=17	=17	=17
!	!	!LO:DY:a:t=piano	!	!	!	!	!	!	!	!	!	!	!	!	!	!	!	!	!	!	!	!	!	!	!	!	!	!	!	!	!	!	!LO:DY:a:t=Pianis&colon;	!	!	!	!	!	!	!	!
4A\	.	p	4a\	.	4a 4e\	.	4cc#\	.	4aa\	.	4A\	-oth	.	4e\	-oth	.	2a\	-oth:	.	4cc#\	-oth	.	4AA/	4a/	.	4ee\	.	4A/	.	4e\	.	4AA/	pp	4AA/	.	4cc#\	.	4aa\	.	4eee\	.
!	!	!	!	!	!	!	!	!LO:DY:t=p.	!	!	!	!	!	!	!	!	!	!	!	!	!	!	!	!	!	!	!	!	!	!	!	!	!	!	!	!	!	!	!	!	!
4r	.	.	8r	.	4r	.	8r	p	8r	.	4r	.	.	4r	.	.	.	.	.	4r	.	.	4r	4r	.	4r	.	4r	.	4r	.	8r	.	8r	.	4r	.	4r	.	8r	.
!	!	!	!	!	!	!	!	!	!	!LO:DY:t=pia&colon;	!	!	!	!	!	!	!	!	!	!	!	!	!	!	!	!	!	!	!	!	!	!	!	!LO:TX:a:i:t=Solo	!	!	!	!	!	!	!LO:DY:t=p&colon;
.	.	.	8e\|	.	.	.	8cc#\|	.	8ee'\	p	.	.	.	.	.	.	.	.	.	.	.	.	.	.	.	.	.	.	.	.	.	8c#\L|	.	8e\L|	.	.	.	.	.	8eee\	p
!	!	!	!	!	!	!	!	!	!	!	!	!	!	!	!	!	!	!	!	!	!	!	!	!	!	!	!	!	!LO:DY:t=p.	!	!LO:DY:t=p&colon;	!	!	!	!	!	!	!	!	!	!
4A\	.	.	8c#\L|	.	4a\	.	8a\L|	.	8cc#'\L	.	4r	.	.	4r	.	.	4r	.	.	4r	.	.	4r	4r	.	4r	.	4A/	p	4e\	p	(8A\	.	8c#\|	.	4r	.	4r	.	8ccc#'\L	.
.	.	.	8e\J|	.	.	.	8cc#\J|	.	8ee'\J	.	.	.	.	.	.	.	.	.	.	.	.	.	.	.	.	.	.	.	.	.	.	8c#\J)	.	8e\J	.	.	.	.	.	8eee'\J	.
=18	=18	=18	=18	=18	=18	=18	=18	=18	=18	=18	=18	=18	=18	=18	=18	=18	=18	=18	=18	=18	=18	=18	=18	=18	=18	=18	=18	=18	=18	=18	=18	=18	=18	=18	=18	=18	=18	=18	=18	=18	=18
!	!	!	!	!	!	!LO:DY:t=p	!	!	!	!	!LO:TX:a:t=3.	!	!	!LO:TX:a:t=3.	!	!	!LO:TX:a:t=3.	!	!	!LO:TX:a:t=3	!	!	!	!	!	!	!	!	!	!	!	!	!	!	!	!	!	!	!	!	!
4AA/	.	.	4c#/	.	4a\	p	4a/	.	4cc#\	.	1.r	.	.	1.r	.	.	1.r	.	.	1.r	.	.	2.r	2.r	.	2.r	.	4A/	.	4e\	.	4c#\	.	4c#\	.	4r	.	4r	.	4ccc#\	.
4r	.	.	4r	p	4r	.	8r	.	8r	.	.	.	.	.	.	.	.	.	.	.	.	.	.	.	.	.	.	4r	.	4r	.	4r	.	4r	.	8r	.	8r	.	4r	.
!	!	!	!	!	!	!	!	!LO:DY:a	!	!LO:DY:a:t=pp&colon;	!	!	!	!	!	!	!	!	!	!	!	!	!	!	!	!	!	!	!	!	!	!	!	!	!	!	!	!	!LO:DY:t=pp.	!	!
.	.	.	.	.	.	.	8c#/	pp	8e'/	pp	.	.	.	.	.	.	.	.	.	.	.	.	.	.	.	.	.	.	.	.	.	.	.	.	.	8cc#\|	p	8ee\|	pp	.	.
4A\	.	.	4A/	.	4a\|	.	8A/L|	.	8c#'/L	.	.	.	.	.	.	.	.	.	.	.	.	.	.	.	.	.	.	4A/	.	4e\	.	4r	.	4r	.	8a\L|	.	8cc#\L|	.	4r	.
.	.	.	.	.	.	.	8c#/J|	.	8e'/J	.	.	.	.	.	.	.	.	.	.	.	.	.	.	.	.	.	.	.	.	.	.	.	.	.	.	8cc#\J|	.	8ee\J|	.	.	.
!	!	!	!LO:LB:g=original	!	!	!	!	!	!	!	!	!	!	!	!	!	!	!	!	!	!	!	!LO:LB:g=original	!	!	!	!	!	!	!	!	!	!	!LO:LB:g=original	!	!	!	!	!	!	!
=19	=19	=19	=19	=19	=19	=19	=19	=19	=19	=19	=19	=19	=19	=19	=19	=19	=19	=19	=19	=19	=19	=19	=19	=19	=19	=19	=19	=19	=19	=19	=19	=19	=19	=19	=19	=19	=19	=19	=19	=19	=19
*	*	*	*	*	*	*	*^	*	*	*	*	*	*	*	*	*	*	*	*	*	*	*	*	*	*	*	*	*	*	*	*	*	*	*	*	*	*	*	*	*	*
!	!	!LO:DY:a:t=pp&colon;	!	!	!	!	!	!	!	!	!	!	!	!	!	!	!	!	!	!	!	!	!	!	!	!	!	!	!	!	!	!	!	!	!	!LO:DY:a:t=Pianiſ	!	!	!	!	!	!
4AA/	.	pp	4A/	.	4a\|	pp	4A/	4ryy	.	4c#/	.	.	.	.	.	.	.	.	.	.	.	.	.	4r	4r	.	4r	.	4A/	pp	4e\	.	4A\	.	4A\	pp	4a/	pp	4cc#\	.	4r	.
!	!	!	!	!LO:DY:t=pianiſ	!	!	!	!	!	!	!	!	!	!	!	!	!	!	!	!	!	!	!	!	!	!	!	!	!	!	!	!	!	!	!	!	!	!	!	!	!	!LO:DY:t=pp&colon;
4E/	.	.	4e\	pp	4a\|	.	4ee/	4cc#\	.	4aa 4a\	.	.	.	.	.	.	.	.	.	.	.	.	.	4AA/	4a/	.	4ee\	pp	4A/	.	4e\	pp	4E\	.	4E\	.	4cc#\	.	4ee\	.	4aa\	pp
4C#/	.	.	4e\	.	4a\|	.	4ee/	4cc#\	.	4aa 4a\	.	.	.	.	.	.	.	.	.	.	.	.	.	4AA/	4a/	.	4ee\	.	4A/	.	4e\	.	4C#/	.	4C#\	.	4cc#\	.	4ee\	.	4aa\	.
=20	=20	=20	=20	=20	=20	=20	=20	=20	=20	=20	=20	=20	=20	=20	=20	=20	=20	=20	=20	=20	=20	=20	=20	=20	=20	=20	=20	=20	=20	=20	=20	=20	=20	=20	=20	=20	=20	=20	=20	=20	=20	=20
*	*	*	*2\right	*	*2\right	*	*	*2\right	*	*2\right	*	*	*	*	*	*	*	*	*	*	*	*	*	*	*	*	*	*	*	*	*	*	*	*	*	*	*	*	*	*	*	*
2AA/	.	.	2e\	.	2a\	.	2ee/	2cc#\	.	2aa 2a\	.	2.r	.	.	2.r	.	.	2.r	.	.	2.r	.	.	2AA/	4a/	.	2ee\	.	2A/	.	2e\	.	2AA/	.	2AA/	.	2cc#\	.	2ee\	.	2aa\	.
!	!	!	!	!	!	!	!	!	!	!	!	!	!	!	!	!	!	!	!	!	!	!	!	!	!LO:N:vis=4	!	!	!	!	!	!	!	!	!	!	!	!	!	!	!	!	!
.	.	.	.	.	.	.	.	.	.	.	.	.	.	.	.	.	.	.	.	.	.	.	.	.	2r	.	.	.	.	.	.	.	.	.	.	.	.	.	.	.	.	.
4r	.	.	4r	.	4r	.	4r	4ryy	.	4r	.	.	.	.	.	.	.	.	.	.	.	.	.	4r	.	.	4r	.	4r	.	4r	.	4r	.	4r	.	4r	.	4r	.	4r	.
*	*	*	*	*	*	*	*v	*v	*	*	*	*	*	*	*	*	*	*	*	*	*	*	*	*	*	*	*	*	*	*	*	*	*	*	*	*	*	*	*	*	*	*
==	==	==	==	==	==	==	==	==	==	==	==	==	==	==	==	==	==	==	==	==	==	==	==	==	==	==	==	==	==	==	==	==	==	==	==	==	==	==	==	==	==
*-	*-	*-	*-	*-	*-	*-	*-	*-	*-	*-	*-	*-	*-	*-	*-	*-	*-	*-	*-	*-	*-	*-	*-	*-	*-	*-	*-	*-	*-	*-	*-	*-	*-	*-	*-	*-	*-	*-	*-	*-	*-
!!!system-decoration: [(g1)][(g2)]s10[(g3)][(g4)]s19
!!!RDF**kern: > = above
!!!RDF**kern: < = below
!!!RDF**kern: | = vertical stroke
!!!RDF**dynam: p = "pia"
!!!RDF**dynam: f = "for"
!!!ENC: Andrzej Kubiczek
!!!END: 2020-10-24
!!!AIN: 1 alto 1 bass 2 clrno 2 cor 2 fagot 1 flt 2 oboe 1 organ/viole 1 soprn 1 tenor 1 timpa 2 viola 2 violn
!!!ENC: Marta Lawrence
!!!END: 2022-04-01
